app/images/nav_icons/delivery.svg

<svg width="55" height="37" viewBox="0 0 55 37" fill="none" xmlns="http://www.w3.org/2000/svg">
<path fill-rule="evenodd" clip-rule="evenodd" d="M3.69036 5.33364H9.81641C10.2503 5.33364 10.6017 5.68563 10.6017 6.11931C10.6017 6.55395 10.2503 6.90594 9.81641 6.90594H3.69036C3.25676 6.90594 2.90511 6.55395 2.90511 6.11931C2.90511 5.68563 3.25676 5.33364 3.69036 5.33364ZM4.73776 16.34H10.34C10.7737 16.34 11.1255 16.692 11.1255 17.126C11.1255 17.56 10.7738 17.9117 10.3402 17.9117H4.73776C4.30401 17.9117 3.95246 17.56 3.95246 17.126C3.95246 16.692 4.30401 16.34 4.73776 16.34ZM8.24556 11.6231H1.59611C1.16226 11.6231 0.810608 11.9748 0.810608 12.4088C0.810608 12.8431 1.16226 13.1951 1.59611 13.1951H8.24556C8.67931 13.1951 9.03101 12.8431 9.03101 12.4088C9.03101 11.9748 8.67931 11.6231 8.24556 11.6231ZM7.60151 22.6289H8.24556C8.67931 22.6289 9.03101 22.9815 9.03101 23.4155C9.03101 23.8495 8.67931 24.2018 8.24556 24.2018H7.60151C7.16766 24.2018 6.81601 23.8495 6.81601 23.4155C6.81601 22.9815 7.16766 22.6289 7.60151 22.6289ZM4.98346 22.6289H1.59611C1.16226 22.6289 0.810608 22.9815 0.810608 23.4155C0.810608 23.8495 1.16226 24.2018 1.59611 24.2018H4.98346C5.41706 24.2018 5.76876 23.8495 5.76876 23.4155C5.76876 22.9815 5.41706 22.6289 4.98346 22.6289ZM35.1858 2.76915H41.8431C46.298 2.76915 49.9225 6.39708 49.9222 10.8551V24.9404C49.9222 25.3741 49.5707 25.7267 49.1369 25.7267H46.3545C45.9768 28.0997 43.9184 29.9194 41.4429 29.9194C38.9673 29.9194 36.9089 28.0997 36.5313 25.7267H25.2793C24.9017 28.0997 22.8431 29.9194 20.3676 29.9194C17.8921 29.9194 15.8337 28.0997 15.4558 25.7267H13.0369C12.6032 25.7267 12.2516 25.3741 12.2516 24.9404V1.35372C12.2516 0.919709 12.6032 0.567749 13.0369 0.567749H19.0835C19.5172 0.567749 19.8688 0.919709 19.8688 1.35372C19.8688 1.78806 19.5172 2.14035 19.0835 2.14035H13.8224V24.1541H15.4558C15.8337 21.7805 17.8921 19.9611 20.3676 19.9611C22.8431 19.9611 24.9016 21.7805 25.2793 24.1541H33.615V23.0289C33.615 22.5949 33.9665 22.2432 34.4004 22.2432C34.8342 22.2432 35.1857 22.5949 35.1857 23.0289V24.1541H36.5313C36.9089 21.7805 38.9673 19.9611 41.4429 19.9611C43.9187 19.9611 45.977 21.7805 46.3547 24.1541H48.3516V10.8551C48.3516 7.26381 45.4318 4.34178 41.8431 4.34178H35.1857V19.3601C35.1857 19.7941 34.8342 20.1461 34.4004 20.1461C33.9665 20.1461 33.615 19.7941 33.615 19.3601V2.14035H22.2251C21.7914 2.14035 21.4397 1.78806 21.4397 1.35372C21.4397 0.919709 21.7914 0.567749 22.2251 0.567749H34.4004C34.8342 0.567749 35.1858 0.919709 35.1858 1.35372V2.76915ZM16.9641 24.9404C16.9641 26.8193 18.4909 28.3474 20.3676 28.3474C22.2442 28.3474 23.7711 26.8193 23.7711 24.9404C23.7711 23.0619 22.2442 21.5341 20.3676 21.5341C18.4909 21.5341 16.9641 23.0619 16.9641 24.9404ZM38.0397 24.9411C38.0401 26.8193 39.5667 28.3474 41.4432 28.3474C43.3197 28.3474 44.8466 26.8193 44.8466 24.9404C44.8466 23.0619 43.3197 21.5341 41.4432 21.5341C39.5667 21.5341 38.0401 23.0612 38.0397 24.9398V24.9404V24.9411ZM37.5421 5.91438H41.8431C44.5657 5.91438 46.7807 8.13051 46.7807 10.8551V14.0902C46.7807 14.5246 46.429 14.8769 45.9954 14.8769H37.5421C37.1084 14.8769 36.7567 14.5246 36.7567 14.0902V6.70005C36.7567 6.26637 37.1084 5.91438 37.5421 5.91438ZM38.3277 13.3043H45.21V10.8551C45.21 8.99787 43.6997 7.48668 41.8431 7.48668H38.3277V13.3043ZM18.3427 24.9404C18.3427 23.8227 19.2512 22.9135 20.3676 22.9135C21.4842 22.9135 22.3924 23.8227 22.3924 24.9404C22.3924 26.0578 21.4842 26.9673 20.3676 26.9673C19.2512 26.9673 18.3427 26.0578 18.3427 24.9404ZM19.9134 24.9404C19.9134 25.1911 20.1172 25.3954 20.3676 25.3954C20.618 25.3954 20.8217 25.1911 20.8217 24.9404C20.8217 24.6894 20.618 24.4858 20.3676 24.4858C20.1172 24.4858 19.9134 24.6894 19.9134 24.9404ZM39.4182 24.9404C39.4182 23.8227 40.3266 22.9135 41.4432 22.9135C42.5597 22.9135 43.4681 23.8227 43.4681 24.9404C43.4681 26.0578 42.5597 26.9673 41.4432 26.9673C40.3266 26.9673 39.4182 26.0578 39.4182 24.9404ZM40.989 24.9404C40.989 25.1911 41.1928 25.3954 41.4432 25.3954C41.6932 25.3954 41.8972 25.1911 41.8972 24.9404C41.8972 24.6894 41.6935 24.4858 41.4432 24.4858C41.1927 24.4858 40.989 24.6894 40.989 24.9404ZM45.21 17.8123C45.21 17.3773 45.5616 17.0254 45.9954 17.0254C46.429 17.0254 46.7807 17.3773 46.7807 17.8123V19.8036C46.7807 20.2376 46.429 20.5899 45.9954 20.5899C45.5616 20.5899 45.21 20.2376 45.21 19.8036V17.8123Z" fill="#A3BBC8"/>
<path opacity="0.34" fill-rule="evenodd" clip-rule="evenodd" d="M44.7499 17.4061C50.1693 17.4061 54.5624 21.7922 54.5624 27.2029C54.5624 32.6136 50.1693 36.9998 44.7499 36.9998C39.3307 36.9998 34.9374 32.6136 34.9374 27.2029C34.9374 21.7922 39.3307 17.4061 44.7499 17.4061Z" fill="#A3BBC8"/>
</svg>

<svg width="55" height="37" fill="none" xmlns="http://www.w3.org/2000/svg"><path fill-rule="evenodd" clip-rule="evenodd" d="M3.69 5.334h6.126a.786.786 0 010 1.572H3.69a.786.786 0 010-1.572zM4.738 16.34h5.602a.786.786 0 010 1.572H4.738a.785.785 0 010-1.572zm3.508-4.717h-6.65a.786.786 0 000 1.572h6.65a.786.786 0 000-1.572zM7.602 22.63h.644a.786.786 0 010 1.573h-.644a.786.786 0 010-1.573zm-2.619 0H1.596a.786.786 0 000 1.573h3.387a.786.786 0 000-1.573zM35.186 2.77h6.657c4.455 0 8.08 3.628 8.08 8.086V24.94a.786.786 0 01-.786.787h-2.782a4.983 4.983 0 01-4.912 4.192 4.983 4.983 0 01-4.912-4.192H25.28a4.983 4.983 0 01-4.911 4.192 4.984 4.984 0 01-4.912-4.192h-2.42a.786.786 0 01-.784-.787V1.354c0-.434.351-.786.785-.786h6.046a.786.786 0 010 1.572h-5.26v22.014h1.633a4.983 4.983 0 014.912-4.193 4.983 4.983 0 014.911 4.193h8.336V23.03a.785.785 0 111.57 0v1.125h1.346a4.983 4.983 0 014.912-4.193 4.983 4.983 0 014.912 4.193h1.997v-13.3c0-3.591-2.92-6.513-6.509-6.513h-6.657V19.36a.786.786 0 11-1.571 0V2.14h-11.39a.786.786 0 010-1.572H34.4c.434 0 .786.352.786.786v1.415zM16.964 24.94a3.409 3.409 0 003.404 3.407 3.409 3.409 0 003.403-3.407 3.409 3.409 0 00-3.403-3.406 3.409 3.409 0 00-3.404 3.406zm21.076.001a3.41 3.41 0 003.403 3.406 3.409 3.409 0 003.404-3.407 3.409 3.409 0 00-3.404-3.406 3.408 3.408 0 00-3.403 3.406v.001zm-.498-19.027h4.301a4.945 4.945 0 014.938 4.941v3.235a.786.786 0 01-.786.787h-8.453a.786.786 0 01-.785-.787V6.7c0-.434.351-.786.785-.786zm.786 7.39h6.882v-2.449a3.371 3.371 0 00-3.367-3.368h-3.515v5.817zM18.343 24.94c0-1.117.908-2.027 2.025-2.027a2.028 2.028 0 010 4.054 2.028 2.028 0 01-2.025-2.027zm1.57 0a.455.455 0 10.91 0 .455.455 0 00-.91 0zm19.505 0a2.03 2.03 0 012.025-2.027c1.117 0 2.025.91 2.025 2.027a2.028 2.028 0 01-2.025 2.027 2.028 2.028 0 01-2.025-2.027zm1.571 0c0 .251.204.455.454.455a.455.455 0 000-.91.455.455 0 00-.454.455zm4.221-7.128a.786.786 0 111.57 0v1.992a.786.786 0 11-1.57 0v-1.992z" fill="#A3BBC8"/><path opacity=".34" fill-rule="evenodd" clip-rule="evenodd" d="M44.75 17.406c5.42 0 9.812 4.386 9.812 9.797 0 5.41-4.393 9.797-9.812 9.797-5.42 0-9.813-4.386-9.813-9.797 0-5.41 4.394-9.797 9.813-9.797z" fill="#A3BBC8"/></svg>
